X:95
T:Cuckolds all a-row
Z:Jack Campin, http://www.campin.me.uk/
F:Jack Campin's Nine-Note Tunebook
% last edit 03-02-2013
S:Simpson, The British Broadside Ballad and Its Music
M:6/4
L:1/4
Q:3/4=100
K:C %Transposed from G
d|d2d  d2c |B2c d2G |A2A B>AB|(c3 c2):|
E|FGF  EDE |D2D BAB |c2G AG2 | E3 C>DE|
  F>GF E>DE|D2D B>AB|c2G AG2 | E3 C2 |]

